; HEADER_BLOCK_START
; generated by AnycubicSlicerNext 1.3.6.1 on 2026-02-25 at 02:55:36
; total layer number: 1
; filament_density: 1.24
; filament_diameter: 1.75
; max_z_height: 0.24
; exclude_object: 0
; model_instances: 1
; source_info: {"models":[{"file_source":0,"mo_file_id":-1,"name":"first_layer_test.stp_id_0_copy_0"}],"models_from":0,"plate_index":1,"slice_paras_process":1,"software_version":"AnycubicSlicerNext 1.3.6.1 20250722144031"}
; HEADER_BLOCK_END

; THUMBNAIL_BLOCK_START
; THUMBNAIL_BLOCK_END

; external perimeters extrusion width = 0.42mm
; perimeters extrusion width = 0.45mm
; infill extrusion width = 0.45mm
; solid infill extrusion width = 0.42mm
; top infill extrusion width = 0.42mm
; first layer extrusion width = 0.50mm

; EXECUTABLE_BLOCK_START
M201 X20000 Y20000 Z5000 E20000 ; sets machine_max_acceleration_x, y, z, e (mm/sec^2)
M203 X500 Y500 Z16 E80 ; sets machine_max_speed_x, y, z, e (mm/sec)
M204 P20000 R20000 T9000 ; sets machine_max_acceleration(mm/sec^2) M204 P[print] R[retract] T[travel]
M205 X20.00 Y20.00 Z8.00 E20.00 ; sets the jerk limits, mm/sec
;TYPE:Custom
; --- ANYCUBIC KOBRA 2 PRO THERMAL DRIFT FIX ---
; Logic: Rough Home -> Cool sensor at 100mm height -> Heat Bed -> Probe Z (Cold Sensor) -> Heat Nozzle -> Print

G90 ; Use absolute coordinates
M83 ; Extruder relative mode

; --- STEP 1: ROUGH HOMING ---
M106 S255 ; (+) Turn on part cooling fan 100%
G28 ; Home all axes (Note: Firmware turns off the fan after G28)

; --- STEP 2: ELEVATE & HEAT SOAK ---
M106 S255 ; (+) FORCE FAN ON AGAIN (Firmware disabled it during G28). Crucial for cooling!
G1 Z100 F1200 ; (+) Lift print head 100mm away from the heat of the bed

M140 S75 ; Set bed temp (start heating)
G4 S60 ; (+) WAIT 60 SECONDS. Allows sensor to cool down while bed heats up.
M190 S75 ; Wait for bed to reach target temp completely

; --- STEP 3: ORIGINAL KOBRA HOMING AND SETTING ZERO ---
; (+) Probing is done with a HOT BED (thermal expansion accounted for)
; (+) but with a COLD SENSOR (fan cooled) and COLD NOZZLE (no oozing)
G28;Move X/Y/Z to min endstops
G1 Z0.28 ;Lift nozzle a bit
G92 E0 ;Specify current extruder position as zero
M107 ;(+) Turn off fan (no longer needed)


; --- STEP 4: HEAT NOZZLE & PREPARE ---
M104 S235 ; Set extruder temp
M109 S235 ; Wait for extruder temp

; --- STEP 5: ORIGINAL PURGE LINE ---
G1 Y222 F1800 ;Move Y to purge point
G1 X180 E25 F500 ;Extrude 25mm of filament in a 5cm line
G92 E0 ;Zero the extruded length again
G1 E-0.2 F500 ;Retract a little
G1 X181 F4000 ;Quickly wipe away from the filament line
M117
M900 K0.07
G90
G21
M83 ; use relative distances for extrusion
; filament start gcode
M900 K0.05; Override pressure advance value
M106 S0
;LAYER_CHANGE
;Z:0.24
;HEIGHT:0.24
G1 E-2 F4800
; layer num/total_layer_count: 1/1
M204 P500
; printing object "first_layer_test.stp" id:0 copy 0
G1 X21.439 Y209.077 F18000
G1 Z.24
G1 E2 F4800
;TYPE:Outer wall
;WIDTH:0.5
G1 F900
G1 X23.259 Y209.077 E.08141
G1 X23.29 Y208.587 E.02198
G1 X23.34 Y208.361 E.01038
G1 X23.42 Y208.156 E.00983
G1 X23.606 Y207.868 E.01534
G1 X23.831 Y207.648 E.0141
G1 X24.003 Y207.538 E.00913
G1 X24.207 Y207.452 E.0099
G1 X24.52 Y207.381 E.01435
G1 X24.844 Y207.359 E.01454
G1 X25.173 Y207.385 E.01477
G1 X25.471 Y207.461 E.01373
G1 X25.674 Y207.553 E.00999
G1 X25.851 Y207.671 E.00952
G1 X26.054 Y207.869 E.01269
G1 X26.22 Y208.098 E.01264
G1 X26.325 Y208.314 E.01078
G1 X26.402 Y208.559 E.0115
G1 X26.448 Y208.84 E.01273
G1 X26.46 Y209.081 E.01078
G1 X26.446 Y209.347 E.01193
G1 X26.399 Y209.611 E.01204
G1 X26.323 Y209.834 E.01053
G1 X26.222 Y210.025 E.00965
G1 X26.093 Y210.19 E.00936
G1 X25.934 Y210.336 E.00967
G1 X25.647 Y210.504 E.01488
G1 X25.398 Y210.591 E.01181
G1 X25.19 Y210.638 E.00953
G1 X24.849 Y210.676 E.01539
G1 X23.917 Y210.683 E.04171
G1 X23.917 Y212.161 E.06613
G1 X24.797 Y212.187 E.03942
G1 X25.077 Y212.236 E.01271
G1 X25.303 Y212.311 E.01067
G1 X25.484 Y212.406 E.00914
G1 X25.629 Y212.52 E.00828
G1 X25.744 Y212.651 E.00779
G1 X25.841 Y212.813 E.00842
G1 X25.915 Y213.011 E.00947
G1 X25.963 Y213.251 E.01098
G1 X25.976 Y213.707 E.02038
G1 X25.94 Y213.954 E.0112
G1 X25.898 Y214.101 E.00682
G1 X25.817 Y214.276 E.00863
G1 X25.722 Y214.41 E.00736
G1 X25.615 Y214.515 E.00671
G1 X25.354 Y214.67 E.01356
G1 X25.153 Y214.732 E.00942
G1 X24.747 Y214.772 E.01826
G1 X24.523 Y214.76 E.01005
G1 X24.277 Y214.716 E.01119
G1 X24.076 Y214.646 E.00949
G1 X23.911 Y214.553 E.00851
G1 X23.769 Y214.434 E.00829
G1 X23.6 Y214.205 E.01272
G1 X23.483 Y213.935 E.01317
G1 X23.415 Y213.658 E.01275
G1 X23.356 Y213.255 E.01826
G1 X21.554 Y213.255 E.08068
G1 X21.649 Y213.873 E.02801
G1 X21.722 Y214.181 E.01415
G1 X21.885 Y214.624 E.02116
G1 X22.156 Y215.087 E.02401
G1 X22.495 Y215.464 E.02266
G1 X22.91 Y215.779 E.02332
G1 X23.235 Y215.955 E.01653
G1 X23.497 Y216.063 E.01267
G1 X23.78 Y216.15 E.01324
G1 X24.07 Y216.212 E.01328
G1 X24.386 Y216.251 E.01425
G1 X24.729 Y216.265 E.01538
G1 X25.167 Y216.245 E.01962
G1 X25.581 Y216.181 E.01875
G1 X25.961 Y216.077 E.01761
G1 X26.379 Y215.897 E.02037
G1 X26.689 Y215.705 E.01634
G1 X27.054 Y215.392 E.0215
G1 X27.325 Y215.063 E.01907
G1 X27.539 Y214.692 E.0192
G1 X27.708 Y214.197 E.02338
G1 X27.779 Y213.678 E.02344
G1 X27.76 Y213.182 E.02223
G1 X27.635 Y212.684 E.02295
G1 X27.407 Y212.224 E.02299
G1 X27.107 Y211.853 E.02135
G1 X26.773 Y211.579 E.01936
G1 X27.084 Y211.412 E.01582
G1 X27.424 Y211.159 E.01896
G1 X27.74 Y210.806 E.0212
G1 X27.972 Y210.42 E.02017
G1 X28.138 Y210.005 E.02
G1 X28.235 Y209.555 E.02058
G1 X28.265 Y209.108 E.02006
G1 X28.248 Y208.736 E.01666
G1 X28.205 Y208.433 E.0137
G1 X28.14 Y208.152 E.01291
G1 X28.016 Y207.799 E.01676
G1 X27.855 Y207.477 E.0161
G1 X27.7 Y207.239 E.01272
G1 X27.527 Y207.02 E.01246
G1 X27.274 Y206.762 E.01621
G1 X27.031 Y206.561 E.01409
G1 X26.783 Y206.389 E.01353
G1 X26.527 Y206.244 E.01315
G1 X26.081 Y206.057 E.02165
G1 X25.687 Y205.951 E.01824
G1 X25.266 Y205.886 E.01907
G1 X24.598 Y205.872 E.0299
G1 X23.942 Y205.955 E.02961
G1 X23.454 Y206.093 E.02271
G1 X22.934 Y206.338 E.0257
G1 X22.621 Y206.549 E.0169
G1 X22.373 Y206.761 E.01459
G1 X22.204 Y206.935 E.01088
G1 X21.977 Y207.225 E.01645
G1 X21.721 Y207.692 E.02383
G1 X21.55 Y208.229 E.02522
G1 X21.447 Y209.018 E.03563
G1 E-1.6 F4800
;WIPE_START
G1 F900
G1 X22.447 Y209.051 E-.4
;WIPE_END
G1 X30.735 Y189.265 F18000
G1 E2 F4800
G1 F900
G1 X30.735 Y218.735 E1.31881
G1 X1.265 Y218.735 E1.31881
G1 X1.265 Y189.265 E1.31881
G1 X30.675 Y189.265 E1.31613
G1 E-1.6 F4800
;WIPE_START
G1 F900
G1 X30.677 Y190.265 E-.4
;WIPE_END
G1 X29.692 Y189.4 F18000
G1 E2 F4800
;TYPE:Bottom surface
;WIDTH:0.501066
G1 F900
G1 X30.399 Y190.107 E.04485
G1 X30.399 Y190.742 E.02852
G1 X29.258 Y189.601 E.07238
G1 X28.622 Y189.601 E.02852
G1 X30.399 Y191.378 E.11272
G1 X30.399 Y192.014 E.02852
G1 X27.986 Y189.601 E.15305
G1 X27.35 Y189.601 E.02852
G1 X30.399 Y192.65 E.19338
G1 X30.399 Y193.285 E.02852
G1 X26.715 Y189.601 E.23371
G1 X26.079 Y189.601 E.02852
G1 X30.399 Y193.921 E.27405
G1 X30.399 Y194.557 E.02852
G1 X25.443 Y189.601 E.31438
G1 X24.807 Y189.601 E.02852
G1 X30.399 Y195.193 E.35471
G1 X30.399 Y195.829 E.02852
G1 X24.171 Y189.601 E.39504
G1 X23.536 Y189.601 E.02852
G1 X30.399 Y196.464 E.43538
G1 X30.399 Y197.1 E.02852
G1 X22.9 Y189.601 E.47571
G1 X22.264 Y189.601 E.02852
G1 X30.399 Y197.736 E.51604
G1 X30.399 Y198.372 E.02852
G1 X21.628 Y189.601 E.55637
G1 X20.993 Y189.601 E.02852
G1 X30.399 Y199.007 E.59671
G1 X30.399 Y199.643 E.02852
G1 X20.357 Y189.601 E.63704
G1 X19.721 Y189.601 E.02852
G1 X30.399 Y200.279 E.67737
G1 X30.399 Y200.915 E.02852
G1 X19.085 Y189.601 E.7177
G1 X18.449 Y189.601 E.02852
G1 X30.399 Y201.551 E.75804
G1 X30.399 Y202.186 E.02852
G1 X17.814 Y189.601 E.79837
G1 X17.178 Y189.601 E.02852
G1 X30.399 Y202.822 E.8387
G1 X30.399 Y203.458 E.02852
G1 X16.542 Y189.601 E.87903
G1 X15.906 Y189.601 E.02852
G1 X30.399 Y204.094 E.91937
G1 X30.399 Y204.729 E.02852
G1 X15.271 Y189.601 E.9597
G1 X14.635 Y189.601 E.02852
G1 X30.399 Y205.365 E1.00003
G1 X30.399 Y206.001 E.02852
G1 X13.999 Y189.601 E1.04036
G1 X13.363 Y189.601 E.02852
G1 X30.399 Y206.637 E1.0807
G1 X30.399 Y207.273 E.02852
G1 X12.727 Y189.601 E1.12103
G1 X12.092 Y189.601 E.02852
G1 X30.399 Y207.908 E1.16136
G1 X30.399 Y208.544 E.02852
G1 X11.456 Y189.601 E1.20169
G1 X10.82 Y189.601 E.02852
G1 X30.399 Y209.18 E1.24202
G1 X30.399 Y209.816 E.02852
G1 X28.368 Y207.785 E.12884
G1 X28.147 Y207.309 E.02351
G1 X27.973 Y207.043 E.01428
G1 X27.78 Y206.798 E.01397
G1 X27.502 Y206.514 E.01785
G1 X27.235 Y206.293 E.01555
G1 X26.962 Y206.104 E.0149
G1 X26.675 Y205.942 E.01476
G1 X26.416 Y205.833 E.0126
G1 X10.184 Y189.601 E1.02971
G1 X9.549 Y189.601 E.02852
G1 X25.534 Y205.587 E1.0141
G1 X25.295 Y205.55 E.01084
G1 X24.853 Y205.541 E.01987
G1 X8.913 Y189.601 E1.01119
G1 X8.277 Y189.601 E.02852
G1 X24.252 Y205.577 E1.01345
G1 X23.875 Y205.624 E.01708
G1 X23.711 Y205.671 E.00764
G1 X7.641 Y189.601 E1.01942
G1 X7.005 Y189.601 E.02852
G1 X23.231 Y205.827 E1.02929
G1 X22.798 Y206.03 E.02144
G1 X6.37 Y189.601 E1.04219
G1 X5.734 Y189.601 E.02852
G1 X22.415 Y206.282 E1.05821
G1 X22.078 Y206.582 E.0202
G1 X5.098 Y189.601 E1.0772
G1 X4.462 Y189.601 E.02852
G1 X21.785 Y206.924 E1.09893
G1 X21.696 Y207.039 E.00653
G1 X21.543 Y207.317 E.01425
G1 X3.827 Y189.601 E1.12388
G1 X3.191 Y189.601 E.02852
G1 X21.347 Y207.758 E1.1518
G1 X21.22 Y208.155 E.01872
G1 X21.207 Y208.254 E.00446
G1 X2.555 Y189.601 E1.18328
G1 X1.919 Y189.601 E.02852
G1 X21.314 Y208.996 E1.23038
G1 E-1.6 F4800
;WIPE_START
G1 F900
G1 X20.607 Y208.289 E-.4
;WIPE_END
G1 X24.903 Y207.499 F18000
G1 E2 F4800
G1 F900
G1 X26.081 Y208.677 E.07471
G1 X26.123 Y209.08 E.01819
G1 X26.106 Y209.338 E.01158
G1 X24.499 Y207.731 E.10194
G1 X24.311 Y207.774 E.00867
G1 X24.16 Y207.837 E.00734
G1 X24.044 Y207.911 E.00618
G1 X25.951 Y209.818 E.12097
G1 X25.845 Y209.961 E.00797
G1 X25.733 Y210.063 E.0068
G1 X25.624 Y210.127 E.00567
G1 X23.755 Y208.258 E.11859
G1 X23.663 Y208.459 E.0099
G1 X23.617 Y208.756 E.01348
G1 X25.161 Y210.3 E.09796
G1 X24.829 Y210.34 E.015
G1 X24.567 Y210.342 E.01174
G1 X23.578 Y209.353 E.06274
G1 X23.574 Y209.414 E.00275
G1 X23.003 Y209.414 E.02559
G1 X23.936 Y210.347 E.05918
G1 X23.58 Y210.35 E.01597
G1 X23.58 Y210.627 E.01242
G1 X22.367 Y209.414 E.07694
G1 X21.732 Y209.414 E.02852
G1 X23.782 Y211.464 E.13007
G1 E-1.6 F4800
;WIPE_START
G1 F900
G1 X23.075 Y210.757 E-.4
;WIPE_END
G1 X24.634 Y212.317 F18000
G1 E2 F4800
G1 F900
G1 X25.628 Y213.31 E.06305
G1 X25.639 Y213.687 E.01691
G1 X25.6 Y213.918 E.01051
G1 X24.188 Y212.506 E.08962
G1 X23.58 Y212.488 E.02726
G1 X23.58 Y211.898 E.02645
G1 X1.601 Y189.919 E1.3943
G1 X1.601 Y190.555 E.02852
G1 X25.336 Y214.29 E1.50567
G1 X25.217 Y214.36 E.0062
G1 X25.086 Y214.4 E.00614
G1 X24.836 Y214.425 E.01128
G1 X1.601 Y191.191 E1.47396
G1 X1.601 Y191.827 E.02852
G1 X22.693 Y212.918 E1.33801
G1 X22.057 Y212.918 E.02852
G1 X1.601 Y192.462 E1.29768
G1 X1.601 Y193.098 E.02852
G1 X21.421 Y212.918 E1.25734
G1 X21.161 Y212.918 E.01167
G1 X21.23 Y213.362 E.02017
G1 X1.601 Y193.734 E1.24519
G1 X1.601 Y194.37 E.02852
G1 X21.675 Y214.444 E1.27345
G1 E-1.6 F4800
;WIPE_START
G1 F900
G1 X20.968 Y213.737 E-.4
;WIPE_END
G1 X28.331 Y208.384 F18000
G1 E2 F4800
G1 F900
G1 X30.399 Y210.451 E.13115
G1 X30.399 Y211.087 E.02852
G1 X28.591 Y209.279 E.11468
G1 X28.569 Y209.603 E.01453
G1 X28.517 Y209.841 E.01097
G1 X30.399 Y211.723 E.11936
G1 X30.399 Y212.359 E.02852
G1 X28.37 Y210.33 E.12869
G1 X28.275 Y210.57 E.01157
G1 X28.162 Y210.758 E.00983
G1 X30.399 Y212.995 E.14191
G1 X30.399 Y213.63 E.02852
G1 X27.9 Y211.132 E.15851
G1 X27.652 Y211.409 E.01666
G1 X27.589 Y211.456 E.00357
G1 X30.399 Y214.266 E.17826
G1 X30.399 Y214.902 E.02852
G1 X27.843 Y212.346 E.16212
G1 X27.952 Y212.568 E.01108
G1 X28.095 Y213.134 E.0262
G1 X28.099 Y213.238 E.00464
G1 X30.399 Y215.538 E.14592
G1 X30.399 Y216.173 E.02852
G1 X28.092 Y213.867 E.1463
G1 X28.037 Y214.275 E.01846
G1 X27.993 Y214.404 E.0061
G1 X30.399 Y216.809 E.1526
G1 X30.399 Y217.445 E.02852
G1 X27.824 Y214.871 E.16331
G1 X27.589 Y215.271 E.02084
G1 X30.399 Y218.081 E.17823
G1 X30.399 Y218.399 E.01426
G1 X30.081 Y218.399 E.01426
G1 X27.302 Y215.62 E.17629
G1 X26.961 Y215.915 E.02022
G1 X29.445 Y218.399 E.15755
G1 X28.809 Y218.399 E.02852
G1 X26.579 Y216.169 E.14146
G1 X26.141 Y216.366 E.02157
G1 X28.173 Y218.399 E.12894
G1 X27.538 Y218.399 E.02852
G1 X25.65 Y216.511 E.11974
G1 X25.088 Y216.585 E.02542
G1 X26.902 Y218.399 E.11505
G1 X26.266 Y218.399 E.02852
G1 X24.458 Y216.59 E.11471
G1 X24.014 Y216.544 E.02002
G1 X23.711 Y216.48 E.01389
G1 X25.63 Y218.399 E.12175
G1 X24.995 Y218.399 E.02852
G1 X1.601 Y195.005 E1.48402
G1 X1.601 Y195.641 E.02852
G1 X24.359 Y218.399 E1.44368
G1 X23.723 Y218.399 E.02852
G1 X1.601 Y196.277 E1.40335
G1 X1.601 Y196.913 E.02852
G1 X23.087 Y218.399 E1.36302
G1 X22.451 Y218.399 E.02852
G1 X1.601 Y197.549 E1.32269
G1 X1.601 Y198.184 E.02852
G1 X21.816 Y218.399 E1.28235
G1 X21.18 Y218.399 E.02852
G1 X1.601 Y198.82 E1.24202
G1 X1.601 Y199.456 E.02852
G1 X20.544 Y218.399 E1.20169
G1 X19.908 Y218.399 E.02852
G1 X1.601 Y200.092 E1.16136
G1 X1.601 Y200.727 E.02852
G1 X19.273 Y218.399 E1.12102
G1 X18.637 Y218.399 E.02852
G1 X1.601 Y201.363 E1.08069
G1 X1.601 Y201.999 E.02852
G1 X18.001 Y218.399 E1.04036
G1 X17.365 Y218.399 E.02852
G1 X1.601 Y202.635 E1.00003
G1 X1.601 Y203.271 E.02852
G1 X16.729 Y218.399 E.95969
G1 X16.094 Y218.399 E.02852
G1 X1.601 Y203.906 E.91936
G1 X1.601 Y204.542 E.02852
G1 X15.458 Y218.399 E.87903
G1 X14.822 Y218.399 E.02852
G1 X1.601 Y205.178 E.8387
G1 X1.601 Y205.814 E.02852
G1 X14.186 Y218.399 E.79836
G1 X13.551 Y218.399 E.02852
G1 X1.601 Y206.449 E.75803
G1 X1.601 Y207.085 E.02852
G1 X12.915 Y218.399 E.7177
G1 X12.279 Y218.399 E.02852
G1 X1.601 Y207.721 E.67737
G1 X1.601 Y208.357 E.02852
G1 X11.643 Y218.399 E.63703
G1 X11.007 Y218.399 E.02852
G1 X1.601 Y208.993 E.5967
G1 X1.601 Y209.628 E.02852
G1 X10.372 Y218.399 E.55637
G1 X9.736 Y218.399 E.02852
G1 X1.601 Y210.264 E.51604
G1 X1.601 Y210.9 E.02852
G1 X9.1 Y218.399 E.47571
G1 X8.464 Y218.399 E.02852
G1 X1.601 Y211.536 E.43537
G1 X1.601 Y212.171 E.02852
G1 X7.829 Y218.399 E.39504
G1 X7.193 Y218.399 E.02852
G1 X1.601 Y212.807 E.35471
G1 X1.601 Y213.443 E.02852
G1 X6.557 Y218.399 E.31438
G1 X5.921 Y218.399 E.02852
G1 X1.601 Y214.079 E.27404
G1 X1.601 Y214.715 E.02852
G1 X5.285 Y218.399 E.23371
G1 X4.65 Y218.399 E.02852
G1 X1.601 Y215.35 E.19338
G1 X1.601 Y215.986 E.02852
G1 X4.014 Y218.399 E.15305
G1 X3.378 Y218.399 E.02852
G1 X1.601 Y216.622 E.11271
G1 X1.601 Y217.258 E.02852
G1 X2.742 Y218.399 E.07238
G1 X2.107 Y218.399 E.02852
G1 X1.4 Y217.692 E.04485
G1 E-1.6 F4800
;WIPE_START
G1 F900
G1 X2.107 Y218.399 E-.39995
G1 X2.107 Y218.399 E-.00005
;WIPE_END
G1 X27.341 Y211.5 F18000
G1 E2 F4800
;TYPE:Gap infill
;WIDTH:0.127983
G1 F900
G1 X27.321 Y211.578 E.00061
;WIDTH:0.170189
G1 X27.32 Y211.601 E.00028
;WIDTH:0.214234
G1 X27.333 Y211.64 E.00067
;WIDTH:0.236947
G1 X27.509 Y211.835 E.00486
;WIDTH:0.262196
G1 X27.692 Y212.038 E.00573
G1 X27.656 Y212.203 E.00355
G1 E-1.6 F4800
;WIPE_START
G1 F900
G1 X27.692 Y212.038 E-.15316
G1 X27.509 Y211.835 E-.24684
;WIPE_END
G1 X23.49 Y216.415 F18000
G1 E2 F4800
;WIDTH:0.228956
G1 F900
G1 X23.113 Y216.179 E.00789
G1 E-1.6 F4800
;WIPE_START
G1 F900
G1 X23.49 Y216.415 E-.4
;WIPE_END
G1 X24.044 Y214.371 F18000
G1 E2 F4800
;WIDTH:0.107779
G1 F900
G1 X23.649 Y213.582 E.00495
G1 E-1.6 F4800
;WIPE_START
G1 F900
G1 X24.044 Y214.371 E-.4
;WIPE_END
G1 X24.499 Y214.528 F18000
G1 E2 F4800
;WIDTH:0.340095
G1 F900
G1 X24.125 Y214.244 E.01353
G1 X23.917 Y214.022 E.00876
;WIDTH:0.309531
G1 X23.775 Y213.813 E.0065
;WIDTH:0.28796
G1 X23.634 Y213.604 E.00596
G1 E-1.6 F4800
;WIPE_START
G1 F900
G1 X23.775 Y213.813 E-.4
;WIPE_END
G1 X25.638 Y212.973 F18000
G1 E2 F4800
;WIDTH:0.128764
G1 F900
G1 X25.521 Y212.813 E.00153
;WIDTH:0.15498
G1 X25.336 Y212.634 E.00266
;WIDTH:0.144915
G1 X25.208 Y212.54 E.00148
G1 E-1.6 F4800
;WIPE_START
G1 F900
G1 X25.336 Y212.634 E-.4
;WIPE_END
G1 X26.035 Y208.281 F18000
G1 E2 F4800
;WIDTH:0.135212
G1 F900
G1 X25.845 Y208.05 E.0025
