; HEADER_BLOCK_START
; generated by AnycubicSlicerNext 1.3.6.1 on 2026-02-25 at 21:54:44
; total layer number: 1
; filament_density: 1.24
; filament_diameter: 1.75
; max_z_height: 0.24
; exclude_object: 0
; model_instances: 1
; source_info: {"models":[{"file_source":0,"mo_file_id":-1,"name":"first_layer_test_concentric_id_0_copy_0"}],"models_from":0,"plate_index":1,"slice_paras_process":1,"software_version":"AnycubicSlicerNext 1.3.6.1 20250722144031"}
; HEADER_BLOCK_END

; THUMBNAIL_BLOCK_START
; THUMBNAIL_BLOCK_END

; external perimeters extrusion width = 0.42mm
; perimeters extrusion width = 0.45mm
; infill extrusion width = 0.45mm
; solid infill extrusion width = 0.42mm
; top infill extrusion width = 0.42mm
; first layer extrusion width = 0.50mm

; EXECUTABLE_BLOCK_START
M201 X20000 Y20000 Z5000 E20000 ; sets machine_max_acceleration_x, y, z, e (mm/sec^2)
M203 X500 Y500 Z16 E80 ; sets machine_max_speed_x, y, z, e (mm/sec)
M204 P20000 R20000 T9000 ; sets machine_max_acceleration(mm/sec^2) M204 P[print] R[retract] T[travel]
M205 X20.00 Y20.00 Z8.00 E20.00 ; sets the jerk limits, mm/sec
;TYPE:Custom
; --- ANYCUBIC KOBRA 2 PRO THERMAL DRIFT FIX ---
; Logic: Rough Home -> Cool sensor at 100mm height -> Heat Bed -> Probe Z (Cold Sensor) -> Heat Nozzle -> Print

G90 ; Use absolute coordinates
M83 ; Extruder relative mode

; --- STEP 1: ROUGH HOMING ---
M106 S255 ; (+) Turn on part cooling fan 100%
G28 ; Home all axes (Note: Firmware turns off the fan after G28)

; --- STEP 2: ELEVATE & HEAT SOAK ---
M106 S255 ; (+) FORCE FAN ON AGAIN (Firmware disabled it during G28). Crucial for cooling!
G1 Z100 F1200 ; (+) Lift print head 100mm away from the heat of the bed

M140 S75 ; Set bed temp (start heating)
G4 S60 ; (+) WAIT 60 SECONDS. Allows sensor to cool down while bed heats up.
M190 S75 ; Wait for bed to reach target temp completely

; --- STEP 3: ORIGINAL KOBRA HOMING AND SETTING ZERO ---
; (+) Probing is done with a HOT BED (thermal expansion accounted for)
; (+) but with a COLD SENSOR (fan cooled) and COLD NOZZLE (no oozing)
G28;Move X/Y/Z to min endstops
G1 Z0.28 ;Lift nozzle a bit
G92 E0 ;Specify current extruder position as zero
M107 ;(+) Turn off fan (no longer needed)


; --- STEP 4: HEAT NOZZLE & PREPARE ---
M104 S235 ; Set extruder temp
M109 S235 ; Wait for extruder temp

; --- STEP 5: ORIGINAL PURGE LINE ---
G1 Y222 F1800 ;Move Y to purge point
G1 X180 E25 F500 ;Extrude 25mm of filament in a 5cm line
G92 E0 ;Zero the extruded length again
G1 E-0.2 F500 ;Retract a little
G1 X181 F4000 ;Quickly wipe away from the filament line
M117
M900 K0.07
G90
G21
M83 ; use relative distances for extrusion
; filament start gcode
M900 K0.05; Override pressure advance value
M106 S0
;LAYER_CHANGE
;Z:0.24
;HEIGHT:0.24
G1 E-2 F4800
; layer num/total_layer_count: 1/1
M204 P500
; printing object "first_layer_test_concentric" id:0 copy 0
G1 X185.192 Y16.885 F18000
G1 Z.24
G1 E2 F4800
;TYPE:Brim
;WIDTH:0.5
G1 F900
G1 X185.286 Y15.904 E.0441
G1 X185.431 Y14.963 E.0426
G1 X185.559 Y14.332 E.0288
G1 X185.802 Y13.376 E.04414
G1 X185.991 Y12.761 E.0288
G1 X186.313 Y11.864 E.04266
G1 X186.559 Y11.269 E.0288
G1 X186.979 Y10.377 E.0441
G1 X187.433 Y9.541 E.04261
G1 X187.767 Y8.991 E.0288
G1 X188.318 Y8.174 E.04409
G1 X188.895 Y7.416 E.04262
G1 X189.309 Y6.924 E.02879
G1 X189.979 Y6.2 E.04415
G1 X190.438 Y5.749 E.02879
G1 X191.15 Y5.115 E.04266
G1 X192.167 Y4.323 E.05766
G1 X192.984 Y3.771 E.04414
G1 X193.534 Y3.437 E.0288
G1 X194.37 Y2.982 E.04261
G1 X195.262 Y2.562 E.0441
G1 X195.856 Y2.316 E.0288
G1 X196.753 Y1.993 E.04265
G1 X197.369 Y1.804 E.02881
G1 X198.324 Y1.561 E.04414
G1 X198.955 Y1.433 E.0288
G1 X199.896 Y1.287 E.04261
G1 X200.877 Y1.193 E.0441
G1 X201.519 Y1.162 E.0288
G1 X202.473 Y1.162 E.04265
G1 X203.115 Y1.192 E.0288
G1 X204.096 Y1.286 E.0441
G1 X205.037 Y1.431 E.0426
G1 X205.668 Y1.559 E.0288
G1 X206.624 Y1.802 E.04414
G1 X207.239 Y1.991 E.0288
G1 X208.136 Y2.313 E.04266
G1 X208.731 Y2.559 E.0288
G1 X209.623 Y2.979 E.0441
G1 X210.459 Y3.433 E.04261
G1 X211.009 Y3.767 E.0288
G1 X211.826 Y4.318 E.04409
G1 X212.584 Y4.895 E.04262
G1 X213.076 Y5.309 E.02879
G1 X213.8 Y5.979 E.04415
G1 X214.251 Y6.438 E.02879
G1 X214.885 Y7.15 E.04266
G1 X215.677 Y8.167 E.05766
G1 X216.229 Y8.984 E.04414
G1 X216.563 Y9.534 E.0288
G1 X217.018 Y10.37 E.04261
G1 X217.438 Y11.262 E.0441
G1 X217.684 Y11.856 E.0288
G1 X218.007 Y12.753 E.04265
G1 X218.196 Y13.369 E.02881
G1 X218.439 Y14.324 E.04414
G1 X218.567 Y14.955 E.0288
G1 X218.713 Y15.896 E.04261
G1 X218.807 Y16.877 E.0441
G1 X218.838 Y17.519 E.0288
G1 X218.838 Y18.473 E.04265
G1 X218.808 Y19.115 E.0288
G1 X218.714 Y20.096 E.0441
G1 X218.569 Y21.037 E.0426
G1 X218.441 Y21.668 E.0288
G1 X218.198 Y22.624 E.04414
G1 X218.009 Y23.239 E.0288
G1 X217.687 Y24.136 E.04266
G1 X217.441 Y24.731 E.0288
G1 X217.021 Y25.623 E.0441
G1 X216.567 Y26.459 E.04261
G1 X216.233 Y27.009 E.0288
G1 X215.682 Y27.826 E.04409
G1 X215.105 Y28.584 E.04262
G1 X214.691 Y29.076 E.02879
G1 X214.021 Y29.8 E.04415
G1 X213.562 Y30.251 E.02879
G1 X212.85 Y30.885 E.04266
G1 X211.833 Y31.677 E.05766
G1 X211.016 Y32.229 E.04414
G1 X210.466 Y32.563 E.0288
G1 X209.63 Y33.018 E.04261
G1 X208.738 Y33.438 E.0441
G1 X208.144 Y33.684 E.0288
G1 X207.247 Y34.007 E.04265
G1 X206.631 Y34.196 E.02881
G1 X205.676 Y34.439 E.04414
G1 X205.045 Y34.567 E.0288
G1 X204.104 Y34.713 E.04261
G1 X203.123 Y34.807 E.0441
G1 X202.481 Y34.838 E.0288
G1 X201.527 Y34.838 E.04265
G1 X200.885 Y34.808 E.0288
G1 X199.904 Y34.714 E.0441
G1 X198.963 Y34.569 E.0426
G1 X198.332 Y34.441 E.0288
G1 X197.376 Y34.198 E.04414
G1 X196.761 Y34.009 E.0288
G1 X195.864 Y33.687 E.04266
G1 X195.269 Y33.441 E.0288
G1 X194.377 Y33.021 E.0441
G1 X193.541 Y32.567 E.04261
G1 X192.991 Y32.233 E.0288
G1 X192.174 Y31.682 E.04409
G1 X191.416 Y31.105 E.04262
G1 X190.924 Y30.691 E.02879
G1 X190.2 Y30.021 E.04415
G1 X189.749 Y29.562 E.02879
G1 X189.115 Y28.85 E.04266
G1 X188.323 Y27.833 E.05766
G1 X187.771 Y27.016 E.04414
G1 X187.437 Y26.466 E.0288
G1 X186.982 Y25.63 E.04261
G1 X186.562 Y24.738 E.0441
G1 X186.316 Y24.144 E.0288
G1 X185.993 Y23.247 E.04265
G1 X185.804 Y22.631 E.02881
G1 X185.561 Y21.676 E.04414
G1 X185.433 Y21.045 E.0288
G1 X185.287 Y20.104 E.04261
G1 X185.193 Y19.123 E.0441
G1 X185.162 Y18.481 E.0288
G1 X185.162 Y17.527 E.04265
G1 X185.19 Y16.925 E.02701
G1 X185.638 Y16.946 F18000
G1 F900
G1 X185.64 Y16.913 E.00145
G1 X185.731 Y15.963 E.04272
G1 X185.872 Y15.045 E.04158
G1 X185.996 Y14.435 E.02783
G1 X186.233 Y13.5 E.04317
G1 X186.415 Y12.905 E.02785
G1 X186.73 Y12.028 E.0417
G1 X186.97 Y11.447 E.02813
G1 X187.377 Y10.584 E.04272
G1 X187.821 Y9.767 E.04158
G1 X188.147 Y9.23 E.02812
G1 X188.68 Y8.439 E.04271
G1 X189.244 Y7.699 E.0416
G1 X189.643 Y7.223 E.02782
G1 X190.299 Y6.515 E.04318
G1 X190.743 Y6.079 E.02783
G1 X191.441 Y5.457 E.04186
G1 X192.427 Y4.689 E.05591
G1 X193.229 Y4.147 E.04332
G1 X193.76 Y3.825 E.02783
G1 X194.577 Y3.381 E.04158
G1 X195.44 Y2.973 E.04272
G1 X196.021 Y2.733 E.02813
G1 X196.892 Y2.42 E.04142
G1 X197.487 Y2.237 E.02784
G1 X198.421 Y1.999 E.04316
G1 X199.037 Y1.874 E.02812
G1 X199.955 Y1.732 E.04158
G1 X200.906 Y1.64 E.04272
G1 X201.533 Y1.611 E.02813
G1 X202.465 Y1.61 E.0417
G1 X203.087 Y1.64 E.02784
G1 X204.037 Y1.731 E.04272
G1 X204.955 Y1.872 E.04158
G1 X205.565 Y1.996 E.02783
G1 X206.5 Y2.233 E.04317
G1 X207.095 Y2.415 E.02785
G1 X207.972 Y2.73 E.0417
G1 X208.553 Y2.97 E.02813
G1 X209.416 Y3.377 E.04272
G1 X210.233 Y3.821 E.04158
G1 X210.77 Y4.147 E.02812
G1 X211.561 Y4.68 E.04271
G1 X212.301 Y5.244 E.0416
G1 X212.777 Y5.643 E.02782
G1 X213.485 Y6.299 E.04318
G1 X213.921 Y6.743 E.02783
G1 X214.543 Y7.441 E.04186
G1 X215.311 Y8.427 E.05591
G1 X215.853 Y9.229 E.04332
G1 X216.175 Y9.76 E.02783
G1 X216.619 Y10.577 E.04158
G1 X217.027 Y11.44 E.04272
G1 X217.267 Y12.021 E.02813
G1 X217.58 Y12.892 E.04142
G1 X217.763 Y13.487 E.02784
G1 X218.001 Y14.421 E.04316
G1 X218.126 Y15.037 E.02812
G1 X218.268 Y15.955 E.04158
G1 X218.36 Y16.906 E.04272
G1 X218.389 Y17.533 E.02813
G1 X218.39 Y18.465 E.0417
G1 X218.36 Y19.087 E.02784
G1 X218.269 Y20.037 E.04272
G1 X218.128 Y20.955 E.04158
G1 X218.004 Y21.565 E.02783
G1 X217.767 Y22.5 E.04317
G1 X217.585 Y23.095 E.02785
G1 X217.27 Y23.972 E.0417
G1 X217.03 Y24.553 E.02813
G1 X216.623 Y25.416 E.04272
G1 X216.179 Y26.233 E.04158
G1 X215.853 Y26.77 E.02812
G1 X215.32 Y27.561 E.04271
G1 X214.756 Y28.301 E.0416
G1 X214.357 Y28.777 E.02782
G1 X213.701 Y29.485 E.04318
G1 X213.257 Y29.921 E.02783
G1 X212.559 Y30.543 E.04186
G1 X211.573 Y31.311 E.05591
G1 X210.771 Y31.853 E.04332
G1 X210.24 Y32.175 E.02783
G1 X209.423 Y32.619 E.04158
G1 X208.56 Y33.027 E.04272
G1 X207.979 Y33.267 E.02813
G1 X207.108 Y33.58 E.04142
G1 X206.513 Y33.763 E.02784
G1 X205.579 Y34.001 E.04316
G1 X204.963 Y34.126 E.02812
G1 X204.045 Y34.268 E.04158
G1 X203.094 Y34.36 E.04272
G1 X202.467 Y34.389 E.02813
G1 X201.535 Y34.39 E.0417
G1 X200.913 Y34.36 E.02784
G1 X199.963 Y34.269 E.04272
G1 X199.045 Y34.128 E.04158
G1 X198.435 Y34.004 E.02783
G1 X197.5 Y33.767 E.04317
G1 X196.905 Y33.585 E.02785
G1 X196.028 Y33.27 E.0417
G1 X195.447 Y33.03 E.02813
G1 X194.584 Y32.623 E.04272
G1 X193.767 Y32.179 E.04158
G1 X193.23 Y31.853 E.02812
G1 X192.439 Y31.32 E.04271
G1 X191.699 Y30.756 E.0416
G1 X191.223 Y30.357 E.02782
G1 X190.515 Y29.701 E.04318
G1 X190.079 Y29.257 E.02783
G1 X189.457 Y28.559 E.04186
G1 X188.689 Y27.573 E.05591
G1 X188.147 Y26.771 E.04332
G1 X187.825 Y26.24 E.02783
G1 X187.381 Y25.423 E.04158
G1 X186.973 Y24.56 E.04272
G1 X186.733 Y23.979 E.02813
G1 X186.42 Y23.108 E.04142
G1 X186.237 Y22.513 E.02784
G1 X185.999 Y21.579 E.04316
G1 X185.874 Y20.963 E.02812
G1 X185.732 Y20.045 E.04158
G1 X185.64 Y19.094 E.04272
G1 X185.611 Y18.467 E.02813
G1 X185.61 Y17.535 E.0417
G1 X185.637 Y16.986 E.02459
G1 X186.085 Y17.007 F18000
G1 F900
G1 X186.088 Y16.942 E.00291
G1 X186.176 Y16.022 E.04135
G1 X186.314 Y15.127 E.04056
G1 X186.433 Y14.538 E.02687
G1 X186.665 Y13.624 E.04219
G1 X186.84 Y13.05 E.02689
G1 X187.148 Y12.193 E.04075
G1 X187.382 Y11.626 E.02745
G1 X187.776 Y10.79 E.04134
G1 X188.208 Y9.993 E.04056
G1 X188.526 Y9.469 E.02745
G1 X189.043 Y8.703 E.04133
G1 X189.592 Y7.982 E.04058
G1 X189.978 Y7.522 E.02686
G1 X190.618 Y6.83 E.04221
G1 X191.047 Y6.409 E.02687
G1 X191.732 Y5.799 E.04105
G1 X192.687 Y5.055 E.05417
G1 X193.474 Y4.523 E.04251
G1 X193.987 Y4.212 E.02686
G1 X194.783 Y3.779 E.04056
G1 X195.619 Y3.385 E.04134
G1 X196.186 Y3.15 E.02745
G1 X197.031 Y2.847 E.04018
G1 X197.605 Y2.67 E.02688
G1 X198.518 Y2.437 E.04219
G1 X199.119 Y2.315 E.02745
G1 X200.015 Y2.177 E.04056
G1 X200.935 Y2.088 E.04134
G1 X201.547 Y2.059 E.02745
G1 X202.458 Y2.059 E.04074
G1 X203.058 Y2.088 E.02688
G1 X203.978 Y2.176 E.04135
G1 X204.873 Y2.314 E.04056
G1 X205.462 Y2.433 E.02687
G1 X206.376 Y2.665 E.04219
G1 X206.95 Y2.84 E.02689
G1 X207.807 Y3.148 E.04075
G1 X208.374 Y3.382 E.02745
G1 X209.21 Y3.776 E.04134
G1 X210.007 Y4.208 E.04056
G1 X210.531 Y4.526 E.02745
G1 X211.297 Y5.043 E.04133
G1 X212.018 Y5.592 E.04058
G1 X212.478 Y5.978 E.02686
G1 X213.17 Y6.618 E.04221
G1 X213.591 Y7.047 E.02687
G1 X214.201 Y7.732 E.04105
G1 X214.945 Y8.687 E.05417
G1 X215.477 Y9.474 E.04251
G1 X215.788 Y9.987 E.02686
G1 X216.221 Y10.783 E.04056
G1 X216.615 Y11.619 E.04134
G1 X216.85 Y12.186 E.02745
G1 X217.153 Y13.031 E.04018
G1 X217.33 Y13.605 E.02688
G1 X217.563 Y14.518 E.04219
G1 X217.685 Y15.119 E.02745
G1 X217.823 Y16.015 E.04056
G1 X217.912 Y16.935 E.04134
G1 X217.941 Y17.547 E.02745
G1 X217.941 Y18.458 E.04074
G1 X217.912 Y19.058 E.02688
G1 X217.824 Y19.978 E.04135
G1 X217.686 Y20.873 E.04056
G1 X217.567 Y21.462 E.02687
G1 X217.335 Y22.376 E.04219
G1 X217.16 Y22.95 E.02689
G1 X216.852 Y23.807 E.04075
G1 X216.618 Y24.374 E.02745
G1 X216.224 Y25.21 E.04134
G1 X215.792 Y26.007 E.04056
G1 X215.474 Y26.531 E.02745
G1 X214.957 Y27.297 E.04133
G1 X214.408 Y28.018 E.04058
G1 X214.022 Y28.478 E.02686
G1 X213.382 Y29.17 E.04221
G1 X212.953 Y29.591 E.02687
G1 X212.268 Y30.201 E.04105
G1 X211.313 Y30.945 E.05417
G1 X210.526 Y31.477 E.04251
G1 X210.013 Y31.788 E.02686
G1 X209.217 Y32.221 E.04056
G1 X208.381 Y32.615 E.04134
G1 X207.814 Y32.85 E.02745
G1 X206.969 Y33.153 E.04018
G1 X206.395 Y33.33 E.02688
G1 X205.482 Y33.563 E.04219
G1 X204.881 Y33.685 E.02745
G1 X203.985 Y33.823 E.04056
G1 X203.065 Y33.912 E.04134
G1 X202.453 Y33.941 E.02745
G1 X201.542 Y33.941 E.04074
G1 X200.942 Y33.912 E.02688
G1 X200.022 Y33.824 E.04135
G1 X199.127 Y33.686 E.04056
G1 X198.538 Y33.567 E.02687
G1 X197.624 Y33.335 E.04219
G1 X197.05 Y33.16 E.02689
G1 X196.193 Y32.852 E.04075
G1 X195.626 Y32.618 E.02745
G1 X194.79 Y32.224 E.04134
G1 X193.993 Y31.792 E.04056
G1 X193.469 Y31.474 E.02745
G1 X192.703 Y30.957 E.04133
G1 X191.982 Y30.408 E.04058
G1 X191.522 Y30.022 E.02686
G1 X190.83 Y29.382 E.04221
G1 X190.409 Y28.953 E.02687
G1 X189.799 Y28.268 E.04105
G1 X189.055 Y27.313 E.05417
G1 X188.523 Y26.526 E.04251
G1 X188.212 Y26.013 E.02686
G1 X187.779 Y25.217 E.04056
G1 X187.385 Y24.381 E.04134
G1 X187.15 Y23.814 E.02745
G1 X186.847 Y22.969 E.04018
G1 X186.67 Y22.395 E.02688
G1 X186.437 Y21.482 E.04219
G1 X186.315 Y20.881 E.02745
G1 X186.177 Y19.985 E.04056
G1 X186.088 Y19.065 E.04134
G1 X186.059 Y18.453 E.02745
G1 X186.059 Y17.542 E.04074
G1 X186.083 Y17.047 E.02218
G1 X186.531 Y17.069 F18000
G1 F900
G1 X186.536 Y16.971 E.00437
G1 X186.621 Y16.082 E.03998
G1 X186.755 Y15.208 E.03954
G1 X186.87 Y14.641 E.0259
G1 X187.096 Y13.748 E.04122
G1 X187.265 Y13.194 E.02593
G1 X187.565 Y12.357 E.03979
G1 X187.794 Y11.804 E.02678
G1 X188.174 Y10.996 E.03997
G1 X188.596 Y10.22 E.03953
G1 X188.906 Y9.708 E.02677
G1 X189.405 Y8.968 E.03996
G1 X189.941 Y8.264 E.03956
G1 X190.312 Y7.821 E.02589
G1 X190.938 Y7.145 E.04124
G1 X191.351 Y6.739 E.0259
G1 X192.022 Y6.141 E.04025
G1 X192.947 Y5.421 E.05243
G1 X193.718 Y4.899 E.04169
G1 X194.213 Y4.599 E.02589
G1 X194.99 Y4.178 E.03954
G1 X195.797 Y3.797 E.03997
G1 X196.35 Y3.568 E.02678
G1 X197.169 Y3.273 E.03895
G1 X197.723 Y3.103 E.02592
G1 X198.615 Y2.875 E.04121
G1 X199.201 Y2.756 E.02677
G1 X200.075 Y2.622 E.03953
G1 X200.964 Y2.536 E.03997
G1 X201.561 Y2.508 E.02678
G1 X202.444 Y2.508 E.0395
G1 X203.029 Y2.536 E.02621
G1 X203.918 Y2.621 E.03998
G1 X204.792 Y2.755 E.03954
G1 X205.359 Y2.87 E.0259
G1 X206.252 Y3.096 E.04122
G1 X206.806 Y3.265 E.02593
G1 X207.643 Y3.565 E.03979
G1 X208.196 Y3.794 E.02678
G1 X209.004 Y4.174 E.03997
G1 X209.78 Y4.596 E.03953
G1 X210.292 Y4.906 E.02677
G1 X211.032 Y5.405 E.03996
G1 X211.736 Y5.941 E.03956
G1 X212.179 Y6.312 E.02589
G1 X212.855 Y6.938 E.04124
G1 X213.261 Y7.351 E.0259
G1 X213.859 Y8.022 E.04025
G1 X214.579 Y8.947 E.05243
G1 X215.101 Y9.718 E.04169
G1 X215.401 Y10.213 E.02589
G1 X215.822 Y10.99 E.03954
G1 X216.203 Y11.797 E.03997
G1 X216.432 Y12.35 E.02678
G1 X216.727 Y13.169 E.03895
G1 X216.897 Y13.723 E.02592
G1 X217.125 Y14.615 E.04121
G1 X217.244 Y15.201 E.02677
G1 X217.378 Y16.075 E.03953
G1 X217.464 Y16.964 E.03997
G1 X217.492 Y17.561 E.02678
G1 X217.492 Y18.45 E.03979
G1 X217.464 Y19.029 E.02592
G1 X217.379 Y19.918 E.03998
G1 X217.245 Y20.792 E.03954
G1 X217.13 Y21.359 E.0259
G1 X216.904 Y22.252 E.04122
G1 X216.735 Y22.806 E.02593
G1 X216.435 Y23.643 E.03979
G1 X216.206 Y24.196 E.02678
G1 X215.826 Y25.004 E.03997
G1 X215.404 Y25.78 E.03953
G1 X215.094 Y26.292 E.02677
G1 X214.595 Y27.032 E.03996
G1 X214.059 Y27.736 E.03956
G1 X213.688 Y28.179 E.02589
G1 X213.062 Y28.855 E.04124
G1 X212.649 Y29.261 E.0259
G1 X211.978 Y29.859 E.04025
G1 X211.053 Y30.579 E.05243
G1 X210.282 Y31.101 E.04169
G1 X209.787 Y31.401 E.02589
G1 X209.01 Y31.822 E.03954
G1 X208.203 Y32.203 E.03997
G1 X207.65 Y32.432 E.02678
G1 X206.831 Y32.727 E.03895
G1 X206.277 Y32.897 E.02592
G1 X205.385 Y33.125 E.04121
G1 X204.799 Y33.244 E.02677
G1 X203.925 Y33.378 E.03953
G1 X203.036 Y33.464 E.03997
G1 X202.439 Y33.492 E.02678
G1 X201.55 Y33.492 E.03979
G1 X200.971 Y33.464 E.02592
G1 X200.082 Y33.379 E.03998
G1 X199.208 Y33.245 E.03954
G1 X198.641 Y33.13 E.0259
G1 X197.748 Y32.904 E.04122
G1 X197.194 Y32.735 E.02593
G1 X196.357 Y32.435 E.03979
